theme-map4trip/src/main/assets/themes/mapsforgeV3/map4trip/symbols/viewpoint.svg

<svg enable-background="new -2 -2 20 20" height="20" viewBox="-2 -2 20 20" width="20" xmlns="http://www.w3.org/2000/svg"><path d="m.8 9.6c-.1 0-.2 0-.3 0-.6-.2-1.1-.6-1.4-1.1-.1-.3-.1-.5 0-.8.1-.4.5-.8 1-1.1.2-.1.4-.2.7-.2h.3c.5.1 1.3.2 2.4.5 1.2.3 1.7.4 1.9.8.1.2.1.4 0 .5-.1.2-.2.6-3.1 1.2-.8.1-1.2.2-1.5.2z" fill="#00f"/><path d="m.8 6.9h.3c.5 0 1.2.2 2.4.4 1.3.4 1.5.5 1.5.7-.1.2-1.2.6-2.8.9-.7.1-1.1.2-1.4.2-.1 0-.2 0-.2 0-.4-.1-.8-.5-1-.8-.1-.2-.1-.3 0-.5.1-.3.3-.6.7-.8.2 0 .3-.1.5-.1m0-1c-.4 0-.6.1-.9.2-.6.3-1.1.9-1.3 1.4-.1.5-.1.8.1 1.2.3.6.9 1.2 1.7 1.3.1 0 .3.1.5.1.3 0 .7-.1 1.5-.2 3-.6 3.4-1 3.6-1.5 0-.4 0-.7-.2-1-.3-.6-.9-.7-2.2-1-1.1-.3-1.9-.4-2.4-.5-.2 0-.3 0-.4 0z" fill="#f4f4f4"/><path d="m8 16.9c-.3 0-.5-.1-.7-.2-.3-.2-.5-.4-.7-.8-.2-.3-.2-.5-.1-1.1 0-.7.5-3.9 1.2-4.2l.1-.1h.2c.6 0 .9.6 1.4 3 .3 1.4.3 2-.1 2.6-.1.2-.3.4-.5.6-.3.2-.6.2-.8.2z" fill="#00f"/><path d="m8 11c.2 0 .5.8.9 2.6.3 1.4.3 1.8 0 2.3-.1.2-.3.4-.4.4-.1.1-.3.1-.4.1s-.3 0-.4-.1c-.2-.1-.3-.3-.5-.6-.1-.2-.1-.3-.1-.8-.1-1.3.5-3.7.9-3.9-.1 0-.1 0 0 0m0-1c-.2 0-.4.1-.6.2-1 .6-1.4 4.6-1.4 4.6 0 .5 0 .9.2 1.3.2.5.5.8.8 1s.6.3 1 .3.7-.1 1-.3.5-.5.7-.7c.5-.8.4-1.7.2-3-.5-2.1-.8-3.4-1.9-3.4z" fill="#f4f4f4"/><path d="m2.2 14.7c-.3 0-.5-.1-.7-.2-.6-.5-.3-1.4-.2-1.7.1-.5.2-.6.6-1 .5-.5 2-1.5 2.9-1.9.6-.3.8-.4 1-.4.3 0 .6.3.6.6 0 .6-1.6 3.1-2.2 3.7s-1.1.9-1.7.9c-.1 0-.2 0-.3 0z" fill="#00f"/><path d="m5.8 10c.1 0 .1 0 .1.1 0 .4-1.4 2.6-2.1 3.4-.4.5-.8.7-1.3.7-.1 0-.2 0-.2 0-.2 0-.2 0-.4-.1-.2-.2-.3-.6-.1-1.1.1-.4.2-.5.5-.8.5-.4 1.9-1.4 2.8-1.9.4-.2.6-.3.7-.3m0-1c-.3 0-.6.2-1.2.5-.9.4-2.4 1.5-3 2-.4.4-.6.7-.8 1.2-.3 1-.2 1.7.4 2.2.3.3.6.4 1 .4h.3c.8-.1 1.4-.4 2.1-1.1.5-.5 2.3-3.1 2.3-4 0-.7-.4-1.2-1.1-1.2z" fill="#f4f4f4"/><path d="m13.4 14.7c-.2 0-.6 0-.8-.1-.8-.4-2.8-3.3-3-4.2 0-.1-.1-.4.1-.6s.4-.2.5-.2c.4 0 1 .2 2.6 1.4 1.4 1 2 1.6 1.9 2.7 0 .4-.2.8-.7 1-.2 0-.4 0-.6 0z" fill="#00f"/><path d="m10.2 10c.3 0 1 .4 2.4 1.3 1.4 1 1.8 1.5 1.7 2.2 0 .4-.1.5-.4.6-.1 0-.3.1-.5.1s-.5 0-.6-.1c-.7-.3-2.6-3-2.7-3.9-.1-.1-.1-.2.1-.2m0-1c-.4 0-.7.2-.9.4-.3.4-.3.9-.2 1 .2 1.1 2.3 4.1 3.3 4.6.3.2.8.2 1.1.2s.6 0 .8-.1c.6-.2.9-.7 1-1.4.2-1.5-.8-2.3-2.1-3.2-1.9-1.2-2.5-1.5-3-1.5z" fill="#f4f4f4"/><path d="m15.1 9.8c-.4 0-.9-.1-1.7-.2-1.7-.4-2.3-.6-2.6-.9-.1-.1-.3-.3-.2-.6 0-.3.3-.5.4-.5.5-.3 3.4-.9 4.2-.9h.1c.5 0 .6.1 1 .3.6.4.9 1 .7 1.6-.1.4-.5.8-1 1.1-.3 0-.5.1-.9.1z" fill="#00f"/><path d="m15.2 7.2c.4 0 .4 0 .7.2.4.3.6.7.5 1s-.4.6-.7.8c-.1.1-.3.1-.6.1-.4 0-.9-.1-1.6-.2-1.5-.3-2.1-.5-2.4-.7-.1-.2-.1-.3.1-.4.3-.2 3.2-.8 3.9-.8zm0-1h-.1c-.7 0-3.8.6-4.4 1-.3.2-.5.5-.6.9 0 .2 0 .6.4 1 .5.5 1.2.7 2.9 1 .9.2 1.4.3 1.8.3s.7-.1 1-.2c.6-.3 1.1-.8 1.2-1.4.2-.8-.1-1.6-.9-2.1-.5-.4-.7-.5-1.3-.5z" fill="#f4f4f4"/><path d="m5.6 6.4c-.2 0-.3-.1-.7-.3-.5-.3-1.9-1.2-2.6-1.7s-1-.9-1.2-1.3c-.2-.6-.1-1.6.4-1.9.3-.1.6-.2.8-.2s.5 0 .8.2c.5.2 1 .8 1.7 1.7 1.6 2.4 1.5 2.9 1.3 3.2-.1.1-.3.3-.5.3z" fill="#00f"/><path d="m2.3 1.5c.2 0 .5 0 .6.1.3.2.8.7 1.4 1.6 1 1.4 1.5 2.4 1.3 2.6 0 0-.1.1-.1.1-.1 0-.2-.1-.4-.2-.5-.3-1.8-1.2-2.5-1.7-.6-.4-.9-.8-1-1.1-.2-.4-.1-1.1.2-1.3.1 0 .3-.1.5-.1m0-1c-.5 0-.8.1-1.1.3-.7.5-.8 1.7-.5 2.5.3.6.7 1 1.3 1.5.7.5 2.1 1.5 2.7 1.8.3.2.5.3.9.3.3 0 .6-.1.9-.4.5-.7.2-1.7-1.3-3.9-.7-1-1.3-1.6-1.8-1.9-.4-.2-.8-.2-1.1-.2z" fill="#f4f4f4"/><path d="m10.4 6.6c-.2 0-.3-.1-.5-.2-.4-.4-.1-1 .2-1.5.5-.9 1.6-2.5 2-3 .3-.3.5-.5.9-.5h.5c.5 0 1 .2 1.2.5.2.1.3.5.3.6 0 .3 0 .6-.1.9-.3.5-.9 1.1-2.3 2-1.6 1-1.9 1.2-2.2 1.2z" fill="#00f"/><path d="m13.6 1.7c.3 0 .6.1.7.3 0 .1.1.3.1.5 0 .3 0 .4-.1.6-.2.4-.8 1-2.2 1.8-1.2.8-1.6 1.1-1.8 1.1h-.1c-.1-.1 0-.3.3-.9.5-1 1.6-2.5 2-2.9.3-.3.4-.3.7-.4.2-.1.3-.1.4-.1m0-1c-.2 0-.4 0-.6.1-.5.1-.8.3-1.2.7-.4.5-1.5 2.1-2 3.1-.4.6-.8 1.4-.2 2.1.2.2.5.3.8.3.5 0 .9-.2 2.4-1.2s2.2-1.6 2.5-2.2c.2-.4.2-.7.2-1.2 0-.2-.1-.7-.3-1-.3-.4-.9-.7-1.6-.7z" fill="#f4f4f4"/><path d="m8 5.5c-.2 0-.4-.1-.5-.2-.4-.5-.8-2.3-.9-3.1-.2-1.1-.2-1.7.1-2.2.3-.6.8-.9 1.3-.9.6 0 1.1.4 1.4 1 .2.3.2.5.1 1 0 .8-.6 3.4-.9 3.9-.2.4-.5.5-.6.5z" fill="#00f"/><path d="m8-.4c.3 0 .7.3 1 .8v.7c0 .8-.6 3.3-.8 3.7-.1.1-.1.2-.2.2 0 0-.1 0-.1-.1-.2-.2-.5-1.3-.8-2.7-.2-1.2-.2-1.6 0-2s.6-.6.9-.6m0-1c-.7 0-1.4.4-1.8 1.1-.3.7-.3 1.4-.1 2.6.5 2.7.9 3.1 1 3.2.2.3.5.5.9.5.2 0 .7-.1 1.1-.7.3-.6.9-3.4.9-4.2 0-.5 0-.8-.2-1.3-.4-.8-1.1-1.2-1.8-1.2z" fill="#f4f4f4"/><path d="m10 8c0 1.1-.9 2-2 2s-2.1-.9-2.1-2 .9-2.1 2.1-2.1c1.1 0 2 .9 2 2.1z" fill="#0101ff" stroke="#000" stroke-width=".25"/></svg>

<?xml version="1.0" encoding="utf-8"?>
<!-- Generator: Adobe Illustrator 14.0.0, SVG Export Plug-In . SVG Version: 6.00 Build 43363)  -->
<!DOCTYPE svg PUBLIC "-//W3C//DTD SVG 1.0//EN" "http://www.w3.org/TR/2001/REC-SVG-20010904/DTD/svg10.dtd">
<svg version="1.0" id="symbol-viewpoint" xmlns:svg="http://www.w3.org/2000/svg"
	 xmlns="http://www.w3.org/2000/svg" xmlns:xlink="http://www.w3.org/1999/xlink" x="0px" y="0px" width="20px" height="20px"
	 viewBox="-2 -2 20 20" style="enable-background:new -2 -2 20 20;" xml:space="preserve">
<g id="path3296">
	<path style="fill:#0000FF;" d="M0.8,9.6c-0.1,0-0.2,0-0.3,0C-0.1,9.4-0.6,9-0.9,8.5C-1,8.2-1,8-0.9,7.7c0.1-0.4,0.5-0.8,1-1.1
		c0.2-0.1,0.4-0.2,0.7-0.2c0.1,0,0.2,0,0.3,0c0.5,0.1,1.3,0.2,2.4,0.5c1.2,0.3,1.7,0.4,1.9,0.8c0.1,0.2,0.1,0.4,0,0.5
		C5.3,8.4,5.2,8.8,2.3,9.4C1.5,9.5,1.1,9.6,0.8,9.6L0.8,9.6z"/>
	<path style="fill:#F4F4F4;" d="M0.8,6.9c0.1,0,0.2,0,0.3,0c0.5,0,1.2,0.2,2.4,0.4C4.8,7.7,5,7.8,5,8C4.9,8.2,3.8,8.6,2.2,8.9
		C1.5,9,1.1,9.1,0.8,9.1c-0.1,0-0.2,0-0.2,0C0.2,9-0.2,8.6-0.4,8.3c-0.1-0.2-0.1-0.3,0-0.5C-0.3,7.5-0.1,7.2,0.3,7
		C0.5,7,0.6,6.9,0.8,6.9 M0.8,5.9C0.4,5.9,0.2,6-0.1,6.1C-0.7,6.4-1.2,7-1.4,7.5C-1.5,8-1.5,8.3-1.3,8.7C-1,9.3-0.4,9.9,0.4,10
		c0.1,0,0.3,0.1,0.5,0.1c0.3,0,0.7-0.1,1.5-0.2c3-0.6,3.4-1,3.6-1.5C6,8,6,7.7,5.8,7.4c-0.3-0.6-0.9-0.7-2.2-1
		C2.5,6.1,1.7,6,1.2,5.9C1,5.9,0.9,5.9,0.8,5.9L0.8,5.9z"/>
</g>
<g id="path3310">
	<path style="fill:#0000FF;" d="M8,16.9c-0.3,0-0.5-0.1-0.7-0.2c-0.3-0.2-0.5-0.4-0.7-0.8c-0.2-0.3-0.2-0.5-0.1-1.1
		c0-0.7,0.5-3.9,1.2-4.2l0.1-0.1l0.2,0c0.6,0,0.9,0.6,1.4,3c0.3,1.4,0.3,2-0.1,2.6c-0.1,0.2-0.3,0.4-0.5,0.6
		C8.5,16.9,8.2,16.9,8,16.9L8,16.9z"/>
	<path style="fill:#F4F4F4;" d="M8,11c0.2,0,0.5,0.8,0.9,2.6c0.3,1.4,0.3,1.8,0,2.3c-0.1,0.2-0.3,0.4-0.4,0.4
		c-0.1,0.1-0.3,0.1-0.4,0.1c-0.1,0-0.3,0-0.4-0.1c-0.2-0.1-0.3-0.3-0.5-0.6c-0.1-0.2-0.1-0.3-0.1-0.8C7,13.6,7.6,11.2,8,11
		C7.9,11,7.9,11,8,11 M8,10c-0.2,0-0.4,0.1-0.6,0.2c-1,0.6-1.4,4.6-1.4,4.6c0,0.5,0,0.9,0.2,1.3c0.2,0.5,0.5,0.8,0.8,1
		c0.3,0.2,0.6,0.3,1,0.3c0.4,0,0.7-0.1,1-0.3c0.3-0.2,0.5-0.5,0.7-0.7c0.5-0.8,0.4-1.7,0.2-3C9.4,11.3,9.1,10,8,10L8,10z"/>
</g>
<g id="path3312">
	<path style="fill:#0000FF;" d="M2.2,14.7c-0.3,0-0.5-0.1-0.7-0.2c-0.6-0.5-0.3-1.4-0.2-1.7c0.1-0.5,0.2-0.6,0.6-1
		c0.5-0.5,2-1.5,2.9-1.9c0.6-0.3,0.8-0.4,1-0.4c0.3,0,0.6,0.3,0.6,0.6c0,0.6-1.6,3.1-2.2,3.7c-0.6,0.6-1.1,0.9-1.7,0.9
		C2.4,14.7,2.3,14.7,2.2,14.7L2.2,14.7z"/>
	<path style="fill:#F4F4F4;" d="M5.8,10c0.1,0,0.1,0,0.1,0.1c0,0.4-1.4,2.6-2.1,3.4C3.4,14,3,14.2,2.5,14.2c-0.1,0-0.2,0-0.2,0
		c-0.2,0-0.2,0-0.4-0.1c-0.2-0.2-0.3-0.6-0.1-1.1c0.1-0.4,0.2-0.5,0.5-0.8c0.5-0.4,1.9-1.4,2.8-1.9C5.5,10.1,5.7,10,5.8,10 M5.8,9
		L5.8,9C5.5,9,5.2,9.2,4.6,9.5c-0.9,0.4-2.4,1.5-3,2c-0.4,0.4-0.6,0.7-0.8,1.2c-0.3,1-0.2,1.7,0.4,2.2c0.3,0.3,0.6,0.4,1,0.4
		c0.1,0,0.2,0,0.3,0c0.8-0.1,1.4-0.4,2.1-1.1c0.5-0.5,2.3-3.1,2.3-4C6.9,9.5,6.5,9,5.8,9L5.8,9z"/>
</g>
<g id="path3308">
	<path style="fill:#0000FF;" d="M13.4,14.7c-0.2,0-0.6,0-0.8-0.1c-0.8-0.4-2.8-3.3-3-4.2c0-0.1-0.1-0.4,0.1-0.6
		c0.2-0.2,0.4-0.2,0.5-0.2c0.4,0,1,0.2,2.6,1.4c1.4,1,2,1.6,1.9,2.7c0,0.4-0.2,0.8-0.7,1C13.8,14.7,13.6,14.7,13.4,14.7L13.4,14.7z"
		/>
	<path style="fill:#F4F4F4;" d="M10.2,10c0.3,0,1,0.4,2.4,1.3c1.4,1,1.8,1.5,1.7,2.2c0,0.4-0.1,0.5-0.4,0.6c-0.1,0-0.3,0.1-0.5,0.1
		c-0.2,0-0.5,0-0.6-0.1c-0.7-0.3-2.6-3-2.7-3.9C10,10.1,10,10,10.2,10 M10.2,9C9.8,9,9.5,9.2,9.3,9.4C9,9.8,9,10.3,9.1,10.4
		c0.2,1.1,2.3,4.1,3.3,4.6c0.3,0.2,0.8,0.2,1.1,0.2c0.3,0,0.6,0,0.8-0.1c0.6-0.2,0.9-0.7,1-1.4c0.2-1.5-0.8-2.3-2.1-3.2
		C11.3,9.3,10.7,9,10.2,9L10.2,9z"/>
</g>
<g id="path3306">
	<path style="fill:#0000FF;" d="M15.1,9.8c-0.4,0-0.9-0.1-1.7-0.2c-1.7-0.4-2.3-0.6-2.6-0.9c-0.1-0.1-0.3-0.3-0.2-0.6
		c0-0.3,0.3-0.5,0.4-0.5c0.5-0.3,3.4-0.9,4.2-0.9l0.1,0c0.5,0,0.6,0.1,1,0.3c0.6,0.4,0.9,1,0.7,1.6c-0.1,0.4-0.5,0.8-1,1.1
		C15.7,9.7,15.5,9.8,15.1,9.8L15.1,9.8z"/>
	<path style="fill:#F4F4F4;" d="M15.2,7.2c0.4,0,0.4,0,0.7,0.2c0.4,0.3,0.6,0.7,0.5,1C16.3,8.7,16,9,15.7,9.2
		c-0.1,0.1-0.3,0.1-0.6,0.1c-0.4,0-0.9-0.1-1.6-0.2c-1.5-0.3-2.1-0.5-2.4-0.7C11,8.2,11,8.1,11.2,8c0.3-0.2,3.2-0.8,3.9-0.8
		C15.1,7.2,15.2,7.2,15.2,7.2 M15.2,6.2L15.2,6.2l-0.1,0c-0.7,0-3.8,0.6-4.4,1c-0.3,0.2-0.5,0.5-0.6,0.9c0,0.2,0,0.6,0.4,1
		c0.5,0.5,1.2,0.7,2.9,1c0.9,0.2,1.4,0.3,1.8,0.3c0.4,0,0.7-0.1,1-0.2c0.6-0.3,1.1-0.8,1.2-1.4c0.2-0.8-0.1-1.6-0.9-2.1
		C16,6.3,15.8,6.2,15.2,6.2L15.2,6.2z"/>
</g>
<g id="path3300">
	<path style="fill:#0000FF;" d="M5.6,6.4c-0.2,0-0.3-0.1-0.7-0.3C4.4,5.8,3,4.9,2.3,4.4c-0.7-0.5-1-0.9-1.2-1.3
		C0.9,2.5,1,1.5,1.5,1.2C1.8,1.1,2.1,1,2.3,1c0.2,0,0.5,0,0.8,0.2C3.6,1.4,4.1,2,4.8,2.9c1.6,2.4,1.5,2.9,1.3,3.2
		C6,6.2,5.8,6.4,5.6,6.4L5.6,6.4z"/>
	<path style="fill:#F4F4F4;" d="M2.3,1.5c0.2,0,0.5,0,0.6,0.1c0.3,0.2,0.8,0.7,1.4,1.6c1,1.4,1.5,2.4,1.3,2.6c0,0-0.1,0.1-0.1,0.1
		c-0.1,0-0.2-0.1-0.4-0.2C4.6,5.4,3.3,4.5,2.6,4C2,3.6,1.7,3.2,1.6,2.9C1.4,2.5,1.5,1.8,1.8,1.6C1.9,1.6,2.1,1.5,2.3,1.5 M2.3,0.5
		c-0.5,0-0.8,0.1-1.1,0.3C0.5,1.3,0.4,2.5,0.7,3.3c0.3,0.6,0.7,1,1.3,1.5c0.7,0.5,2.1,1.5,2.7,1.8C5,6.8,5.2,6.9,5.6,6.9
		c0.3,0,0.6-0.1,0.9-0.4C7,5.8,6.7,4.8,5.2,2.6C4.5,1.6,3.9,1,3.4,0.7C3,0.5,2.6,0.5,2.3,0.5L2.3,0.5z"/>
</g>
<g id="path3304">
	<path style="fill:#0000FF;" d="M10.4,6.6c-0.2,0-0.3-0.1-0.5-0.2c-0.4-0.4-0.1-1,0.2-1.5c0.5-0.9,1.6-2.5,2-3
		c0.3-0.3,0.5-0.5,0.9-0.5c0.2,0,0.3,0,0.5,0c0.5,0,1,0.2,1.2,0.5C14.9,2,15,2.4,15,2.5c0,0.3,0,0.6-0.1,0.9c-0.3,0.5-0.9,1.1-2.3,2
		C11,6.4,10.7,6.6,10.4,6.6L10.4,6.6z"/>
	<path style="fill:#F4F4F4;" d="M13.6,1.7c0.3,0,0.6,0.1,0.7,0.3c0,0.1,0.1,0.3,0.1,0.5c0,0.3,0,0.4-0.1,0.6c-0.2,0.4-0.8,1-2.2,1.8
		c-1.2,0.8-1.6,1.1-1.8,1.1c0,0-0.1,0-0.1,0c-0.1-0.1,0-0.3,0.3-0.9c0.5-1,1.6-2.5,2-2.9c0.3-0.3,0.4-0.3,0.7-0.4
		C13.4,1.7,13.5,1.7,13.6,1.7 M13.6,0.7c-0.2,0-0.4,0-0.6,0.1c-0.5,0.1-0.8,0.3-1.2,0.7C11.4,2,10.3,3.6,9.8,4.6
		C9.4,5.2,9,6,9.6,6.7c0.2,0.2,0.5,0.3,0.8,0.3c0.5,0,0.9-0.2,2.4-1.2c1.5-1,2.2-1.6,2.5-2.2c0.2-0.4,0.2-0.7,0.2-1.2
		c0-0.2-0.1-0.7-0.3-1C14.9,1,14.3,0.7,13.6,0.7L13.6,0.7z"/>
</g>
<g id="path3302">
	<path style="fill:#0000FF;" d="M8,5.5c-0.2,0-0.4-0.1-0.5-0.2C7.1,4.8,6.7,3,6.6,2.2C6.4,1.1,6.4,0.5,6.7,0C7-0.6,7.5-0.9,8-0.9
		c0.6,0,1.1,0.4,1.4,1c0.2,0.3,0.2,0.5,0.1,1c0,0.8-0.6,3.4-0.9,3.9C8.4,5.4,8.1,5.5,8,5.5L8,5.5z"/>
	<path style="fill:#F4F4F4;" d="M8-0.4c0.3,0,0.7,0.3,1,0.8C9,0.5,9,0.6,9,1.1C9,1.9,8.4,4.4,8.2,4.8C8.1,4.9,8.1,5,8,5
		c0,0-0.1,0-0.1-0.1C7.7,4.7,7.4,3.6,7.1,2.2C6.9,1,6.9,0.6,7.1,0.2C7.3-0.2,7.7-0.4,8-0.4 M8-1.4L8-1.4C7.3-1.4,6.6-1,6.2-0.3
		C5.9,0.4,5.9,1.1,6.1,2.3C6.6,5,7,5.4,7.1,5.5C7.3,5.8,7.6,6,8,6c0.2,0,0.7-0.1,1.1-0.7C9.4,4.7,10,1.9,10,1.1c0-0.5,0-0.8-0.2-1.3
		C9.4-1,8.7-1.4,8-1.4L8-1.4z"/>
</g>
<path id="path2419" style="fill:#0101FF;stroke:#000000;stroke-width:0.25;" d="M10,8C10,9.1,9.1,10,8,10C6.9,10,5.9,9.1,5.9,8
	c0-1.1,0.9-2.1,2.1-2.1C9.1,5.9,10,6.8,10,8z"/>
</svg>
